X:488
T: "Das Welt - Ende"
N: Z1168
O: Europa, Mitteleuropa, Deutschland, Lothringen
R: Liebes - Lied, verlassene Liebe
M: 3/4
L: 1/8
K: G
 | DDG2G2 | G2FEF2 |
DFA2A2 | A2G2z2 |
dcB2d2 | d2cBc2 |
cBA2c2 | c2BAB2 |
GBd2B2 | A2G2z2

@@@ Tune index: 10246
